packages/tokens/icons/samePage/size24Px.svg

<svg viewBox="0 0 24 24" fill="none" xmlns="http://www.w3.org/2000/svg" width="1em" height="1em"><path d="M20.625 16.5H15.375C14.8918 16.5 14.5 16.1082 14.5 15.625L14.5 8.375C14.5 7.89175 14.8918 7.5 15.375 7.5L19.1569 7.5C19.4208 7.5 19.6706 7.61912 19.8367 7.82418L21.3049 9.63628C21.4311 9.7921 21.5 9.98656 21.5 10.1871V15.625C21.5 16.1082 21.1082 16.5 20.625 16.5Z" stroke="currentColor"/><path d="M19.5 7.53125V9.83275C19.5 10.2167 19.8145 10.5263 20.1984 10.5202L21.4688 10.5" stroke="currentColor"/><line x1="16.5" y1="11.5" x2="18.5" y2="11.5" stroke="currentColor" stroke-linecap="round"/><line x1="16.5" y1="13.5" x2="19.5" y2="13.5" stroke="currentColor" stroke-linecap="round"/><path d="M11.5 10.5L13 12L11.5 13.5" stroke="currentColor" stroke-linecap="round" stroke-linejoin="round"/><path d="M8.625 16.5H3.375C2.89175 16.5 2.5 16.1082 2.5 15.625L2.5 8.375C2.5 7.89175 2.89175 7.5 3.375 7.5L7.15686 7.5C7.42078 7.5 7.6706 7.61912 7.83673 7.82418L9.30487 9.63628C9.43111 9.7921 9.5 9.98656 9.5 10.1871L9.5 15.625C9.5 16.1082 9.10825 16.5 8.625 16.5Z" stroke="currentColor"/><path d="M7.5 7.53125V9.83275C7.5 10.2167 7.8145 10.5263 8.19841 10.5202L9.46875 10.5" stroke="currentColor"/><line x1="4.5" y1="11.5" x2="6.5" y2="11.5" stroke="currentColor" stroke-linecap="round"/><line x1="4.5" y1="13.5" x2="7.5" y2="13.5" stroke="currentColor" stroke-linecap="round"/></svg>

<svg xmlns="http://www.w3.org/2000/svg" fill="none" viewBox="0 0 24 24" width="1em" height="1em"><path stroke="currentColor" d="M20.625 16.5h-5.25a.875.875 0 0 1-.875-.875v-7.25c0-.483.392-.875.875-.875h3.782c.264 0 .514.12.68.324l1.468 1.812c.126.156.195.35.195.551v5.438a.875.875 0 0 1-.875.875Z"/><path stroke="currentColor" d="M19.5 7.531v2.302c0 .384.314.693.698.687l1.27-.02"/><path stroke="currentColor" stroke-linecap="round" d="M16.5 11.5h2m-2 2h3"/><path stroke="currentColor" stroke-linecap="round" stroke-linejoin="round" d="M11.5 10.5 13 12l-1.5 1.5"/><path stroke="currentColor" d="M8.625 16.5h-5.25a.875.875 0 0 1-.875-.875v-7.25c0-.483.392-.875.875-.875h3.782c.264 0 .514.12.68.324l1.468 1.812c.126.156.195.35.195.551v5.438a.875.875 0 0 1-.875.875Z"/><path stroke="currentColor" d="M7.5 7.531v2.302c0 .384.314.693.698.687l1.27-.02"/><path stroke="currentColor" stroke-linecap="round" d="M4.5 11.5h2m-2 2h3"/></svg>
